packages/ui-solid/icons/nightmode_24.svg

<svg width="24" height="24" viewBox="0 0 24 24" fill="none" xmlns="http://www.w3.org/2000/svg">
<path fill-rule="evenodd" clip-rule="evenodd" d="M9.14646 15.449C12.0985 15.449 14.6995 12.8468 14.6995 9.37121C14.6995 8.58696 14.5642 7.84243 14.3207 7.16098C14.0194 6.31778 14.3172 5.46999 14.8797 4.96935C15.4633 4.44999 16.4196 4.24174 17.2611 4.76156C20.0067 6.45743 21.8009 9.59252 21.8009 13.1225C21.8009 18.3486 17.8179 22.8003 12.6479 22.8003C9.1801 22.8003 6.2204 20.772 4.67452 17.879C4.20728 17.0046 4.47963 16.0702 5.01853 15.5255C5.5387 14.9998 6.39074 14.7368 7.22036 15.0733C7.81986 15.3164 8.46769 15.449 9.14646 15.449ZM7.67362 18.9242C7.49237 18.7457 7.3195 18.5576 7.15572 18.3606C6.85792 18.0025 6.59018 17.615 6.35674 17.2028C6.32453 17.1459 6.29298 17.0885 6.26209 17.0307C6.16774 16.8541 6.35836 16.6661 6.54388 16.7413C6.59356 16.7615 6.6435 16.7811 6.69369 16.8001C7.11981 16.9616 7.56399 17.0822 8.02209 17.1575C8.19623 17.1861 8.37238 17.2082 8.55033 17.2235C8.74695 17.2404 8.94577 17.249 9.14646 17.249C13.2075 17.249 16.4995 13.722 16.4995 9.37121C16.4995 9.15218 16.4911 8.93522 16.4747 8.7207C16.4575 8.49458 16.4313 8.27117 16.3966 8.05085C16.3232 7.58462 16.2115 7.1323 16.0652 6.69773C16.0491 6.65003 16.0327 6.60255 16.0158 6.55529C15.9484 6.36678 16.1449 6.18777 16.3152 6.29297C16.3678 6.32544 16.4199 6.35858 16.4717 6.39239C16.868 6.65142 17.2397 6.94952 17.582 7.28167C17.8014 7.49452 18.0087 7.72136 18.2028 7.96087C19.3229 9.34335 20.0009 11.1481 20.0009 13.1225C20.0009 17.4733 16.7089 21.0003 12.6479 21.0003C10.7295 21.0003 8.98282 20.2133 7.67362 18.9242Z" fill="#007AFF"/>
<path d="M8.682 7.86235C8.78066 7.59574 8.82998 7.46244 8.90186 7.42442C8.96412 7.39149 9.03864 7.39149 9.1009 7.42442C9.17277 7.46244 9.2221 7.59574 9.32076 7.86235L9.62241 8.6775C9.6424 8.73151 9.65239 8.75852 9.66831 8.78116C9.68242 8.80121 9.69989 8.81868 9.71995 8.83279C9.74258 8.84871 9.76959 8.85871 9.82361 8.87869L10.6388 9.18031C10.9054 9.27897 11.0387 9.3283 11.0767 9.40017C11.1097 9.46243 11.1097 9.53695 11.0767 9.59922C11.0387 9.67109 10.9054 9.72042 10.6388 9.81908L9.82361 10.1207C9.76959 10.1407 9.74258 10.1507 9.71995 10.1666C9.69989 10.1807 9.68242 10.1982 9.66831 10.2182C9.65239 10.2409 9.6424 10.2679 9.62241 10.3219L9.32076 11.137C9.2221 11.4036 9.17277 11.5369 9.1009 11.575C9.03864 11.6079 8.96412 11.6079 8.90186 11.575C8.82998 11.5369 8.78066 11.4036 8.682 11.137L8.38035 10.3219C8.36036 10.2679 8.35037 10.2409 8.33445 10.2182C8.32034 10.1982 8.30287 10.1807 8.28281 10.1666C8.26017 10.1507 8.23317 10.1407 8.17915 10.1207L7.364 9.81908C7.09737 9.72042 6.96406 9.67109 6.92604 9.59922C6.8931 9.53695 6.8931 9.46243 6.92604 9.40017C6.96406 9.3283 7.09737 9.27897 7.364 9.18031L8.17915 8.87869C8.23317 8.85871 8.26017 8.84871 8.28281 8.83279C8.30287 8.81868 8.32034 8.80121 8.33445 8.78116C8.35037 8.75852 8.36036 8.73151 8.38035 8.6775L8.682 7.86235Z" fill="#007AFF"/>
<path d="M4.68134 2.86232C4.78 2.59571 4.82933 2.46241 4.9012 2.42439C4.96346 2.39146 5.03798 2.39146 5.10024 2.42439C5.17212 2.46241 5.22145 2.59571 5.3201 2.86232L5.75683 4.04248C5.77681 4.0965 5.78681 4.12351 5.80273 4.14614C5.81684 4.1662 5.83431 4.18367 5.85437 4.19778C5.877 4.2137 5.90401 4.22369 5.95803 4.24368L7.1382 4.68036C7.40484 4.77902 7.53815 4.82835 7.57617 4.90022C7.60911 4.96249 7.60911 5.03701 7.57617 5.09927C7.53815 5.17114 7.40484 5.22047 7.13821 5.31913L5.95803 5.75581C5.90401 5.7758 5.877 5.7858 5.85437 5.80172C5.83431 5.81582 5.81684 5.83329 5.80273 5.85335C5.78681 5.87599 5.77681 5.90299 5.75683 5.95701L5.3201 7.13718C5.22145 7.40378 5.17212 7.53709 5.10024 7.5751C5.03798 7.60804 4.96346 7.60804 4.9012 7.5751C4.82933 7.53709 4.78 7.40378 4.68134 7.13718L4.24462 5.95701C4.22463 5.90299 4.21464 5.87599 4.19872 5.85335C4.18461 5.83329 4.16714 5.81582 4.14708 5.80172C4.12444 5.7858 4.09744 5.7758 4.04342 5.75581L2.86324 5.31913C2.59661 5.22047 2.4633 5.17114 2.42527 5.09927C2.39234 5.03701 2.39234 4.96249 2.42527 4.90022C2.4633 4.82835 2.59661 4.77902 2.86324 4.68036L4.04342 4.24368C4.09743 4.22369 4.12444 4.2137 4.14708 4.19778C4.16714 4.18367 4.18461 4.1662 4.19872 4.14614C4.21464 4.12351 4.22463 4.0965 4.24462 4.04248L4.68134 2.86232Z" fill="#007AFF"/>
</svg>

<svg xmlns="http://www.w3.org/2000/svg" width="24" height="24" fill="none"><path fill="currentColor" fill-rule="evenodd" d="M9.146 15.449c2.952 0 5.554-2.602 5.554-6.078 0-.784-.136-1.529-.38-2.21a2.02 2.02 0 0 1 .56-2.192 1.995 1.995 0 0 1 2.381-.207c2.746 1.695 4.54 4.83 4.54 8.36 0 5.227-3.983 9.678-9.153 9.678-3.468 0-6.428-2.028-7.973-4.921a2 2 0 0 1 .344-2.354 2.02 2.02 0 0 1 2.201-.452c.6.243 1.248.376 1.926.376m-1.472 3.475a7.9 7.9 0 0 1-1.412-1.893c-.094-.177.096-.365.282-.29l.15.06a6.9 6.9 0 0 0 2.452.448c4.061 0 7.354-3.527 7.354-7.878a8.5 8.5 0 0 0-.103-1.32 8.3 8.3 0 0 0-.381-1.496c-.068-.188.129-.367.3-.262a7.4 7.4 0 0 1 1.266.989q.33.32.62.679c1.12 1.382 1.799 3.187 1.799 5.162C20 17.473 16.709 21 12.648 21c-1.918 0-3.665-.787-4.974-2.076" clip-rule="evenodd"/><path fill="currentColor" d="M8.682 7.862c.099-.266.148-.4.22-.438a.21.21 0 0 1 .199 0c.072.038.121.172.22.438l.301.816c.02.054.03.08.046.103q.021.03.052.052c.023.016.05.026.104.046l.815.301c.266.099.4.148.438.22a.21.21 0 0 1 0 .2c-.038.071-.172.12-.438.22l-.815.3c-.054.02-.081.03-.104.047a.2.2 0 0 0-.052.051c-.016.023-.026.05-.046.104l-.301.815c-.099.267-.148.4-.22.438a.21.21 0 0 1-.2 0c-.071-.038-.12-.171-.219-.438l-.302-.815a.5.5 0 0 0-.046-.104.2.2 0 0 0-.051-.051.5.5 0 0 0-.104-.046l-.815-.302c-.267-.099-.4-.148-.438-.22a.21.21 0 0 1 0-.199c.038-.072.171-.121.438-.22l.815-.301a.5.5 0 0 0 .104-.046.2.2 0 0 0 .051-.052c.016-.022.026-.05.046-.104zm-4.001-5c.099-.266.148-.4.22-.438a.21.21 0 0 1 .2 0c.071.038.12.172.22.438l.436 1.18c.02.054.03.082.046.104q.021.03.051.052c.023.016.05.026.104.046l1.18.436c.267.099.4.148.438.22a.21.21 0 0 1 0 .2c-.038.071-.171.12-.438.22l-1.18.436a.5.5 0 0 0-.104.046.2.2 0 0 0-.051.051.5.5 0 0 0-.046.104l-.437 1.18c-.099.267-.148.4-.22.438a.21.21 0 0 1-.199 0c-.072-.038-.121-.171-.22-.438l-.436-1.18a.5.5 0 0 0-.046-.104.2.2 0 0 0-.052-.051.5.5 0 0 0-.104-.046l-1.18-.437c-.266-.099-.4-.148-.438-.22a.21.21 0 0 1 0-.199c.038-.072.172-.121.438-.22l1.18-.436a.5.5 0 0 0 .104-.046.2.2 0 0 0 .052-.052c.016-.022.026-.05.046-.104z"/></svg>
